images/01/Group-3457.svg

<svg fill="none" height="30" viewBox="0 0 30 30" width="30" xmlns="http://www.w3.org/2000/svg"><g fill="#555"><path d="m2.5 30h17.5 8c.8272 0 1.5-.6728 1.5-1.5v-16c0-.8272-.6728-1.5-1.5-1.5h-3.5v-9c0-1.102785-.8972-2-2-2h-20c-1.10278 0-2 .897215-2 2v26c0 1.1028.89722 2 2 2zm-1-2v-3h17v3.5c0 .1762.0361.3428.0922.5h-16.0922c-.55151 0-1-.4485-1-1zm27-2h-9v-11.5h9zm-.5 3h-8c-.2756 0-.5-.2244-.5-.5v-1.5h9v1.5c0 .2756-.2244.5-.5.5zm.5-16.5v1h-9v-1c0-.2756.2244-.5.5-.5h8c.2756 0 .5.2244.5.5zm-8.5-1.5c-.8271 0-1.5.6728-1.5 1.5v11.5h-17v-20h22v7zm-17.5-10h20c.5515 0 1 .44849 1 1v1h-22v-1c0-.55151.44849-1 1-1z"/><path d="m12.5 25.5c-.8272 0-1.5.6729-1.5 1.5 0 .8272.6728 1.5 1.5 1.5.8271 0 1.5-.6728 1.5-1.5 0-.8271-.6729-1.5-1.5-1.5zm0 2c-.2756 0-.5-.2244-.5-.5s.2244-.5.5-.5.5.2244.5.5-.2244.5-.5.5z"/></g></svg>

<svg xmlns="http://www.w3.org/2000/svg" width="30" height="30" viewBox="0 0 30 30" fill="none"><path d="M2.5 30H20H28C28.8272 30 29.5 29.3272 29.5 28.5V12.5C29.5 11.6728 28.8272 11 28 11H24.5V2C24.5 0.897215 23.6028 0 22.5 0H2.5C1.39722 0 0.5 0.897215 0.5 2V28C0.5 29.1028 1.39722 30 2.5 30ZM1.5 28V25H18.5V28.5C18.5 28.6762 18.5361 28.8428 18.5922 29H2.5C1.94849 29 1.5 28.5515 1.5 28ZM28.5 26H19.5V14.5H28.5V26ZM28 29H20C19.7244 29 19.5 28.7756 19.5 28.5V27H28.5V28.5C28.5 28.7756 28.2756 29 28 29ZM28.5 12.5V13.5H19.5V12.5C19.5 12.2244 19.7244 12 20 12H28C28.2756 12 28.5 12.2244 28.5 12.5ZM20 11C19.1729 11 18.5 11.6728 18.5 12.5V24H1.5V4H23.5V11H20ZM2.5 1H22.5C23.0515 1 23.5 1.44849 23.5 2V3H1.5V2C1.5 1.44849 1.94849 1 2.5 1Z" fill="#555555"/><path d="M12.5 25.5C11.6728 25.5 11 26.1729 11 27C11 27.8272 11.6728 28.5 12.5 28.5C13.3271 28.5 14 27.8272 14 27C14 26.1729 13.3271 25.5 12.5 25.5ZM12.5 27.5C12.2244 27.5 12 27.2756 12 27C12 26.7244 12.2244 26.5 12.5 26.5C12.7756 26.5 13 26.7244 13 27C13 27.2756 12.7756 27.5 12.5 27.5Z" fill="#555555"/></svg>
